X:7
T:Contrasamba
R:reel
L:1/8
M:4/4
K:C
Q:1/2=110
"Am"A,2 C2 E2 z2|A,2 CE z D2 C|"E"D3 B z4|z8|
"Am"A,2 C2 E2 z2|A,2 CE z D2 C|"E"D3 B z4|z8:|
"Am"z2 AB c de|z f2 g d2 c2|"E7"B4 B c2 d|z8|
"E7"z2 ^GA B2 cd|z e2 d c2 B2|"Am"A4 A B2 c|z8|
"A"a4 e4|"A7"a4 g4|"Dm"g ff z e2 (f|e8)|
"E7"e4 E4|c4 B4|"Am"A2 z2 z4|z8|
%%text 2015-02-01
